X:1
T:Title
%%score 1 2
L:1/8
Q:1/4=80
M:4/4
K:F
V:1 treble nm="Strings 1, Soprano"
V:2 bass nm="Strings 1, Bass"
V:1
 z4 z2 C2 | [FA]3 [FB] [FA][CF][CE][CF] | [EG]6 [EG]2 | [GB]3 [GB] [FA]2 F2 | [EG]6 [FA]2 | %5
 [Ac]3 [Bd] [Ac][GB][FA][GB] | [Ac]6 [FA]2 | [Ac]3 [Bd] [Ac][GB][FA][GB] | [Ac]6 [GB]2 | %9
 [FA]3 [GB] [EG]3 [CF] | [CF]6 z2 |] %11
V:2
 z4 z2 [F,A,]2 | [F,C]3 [F,D] [F,C][F,A,][C,G,][C,A,] | [C,B,]6 [C,B,]2 | %3
 [E,C]3 [E,C] [F,C]2 [D,=B,]2 | [C,C]6 F,2 | F,2 F,2 F,2 F,2 | F,6 F,2 | F,2 F,2 F,2 F,2 | %8
 F,6 [B,,D]2 | [C,C]3 [C,C] [C,B,]3 [F,,F,A,] | [F,,F,A,]6 z2 |] %11

